build/img/index/brand/2.svg

<svg width="164" height="21" viewBox="0 0 164 21" fill="none" xmlns="http://www.w3.org/2000/svg">
<path d="M140.188 7.92767C147.245 5.08571 151.64 3.44913 163.285 0.602173C156.965 1.02246 142.975 1.98858 133.334 3.88125C133.334 3.88125 140.038 7.83897 140.188 7.92767Z" fill="black"/>
<path d="M136.959 5.44062L134.733 4.12641C141.911 2.82674 151.072 1.99604 157.739 1.49352C150 3.54374 145.967 5.06391 140.23 7.37177C139.71 7.06476 138.328 6.24886 136.959 5.44062Z" stroke="#132C39" stroke-opacity="0.05"/>
<path d="M118.24 17.3429H127.464C129.292 14.5596 131.11 13.2019 133.227 11.6913C131.624 11.069 130.014 10.4673 128.377 9.8855C122.486 12.5005 119.209 16.0097 118.24 17.3429Z" fill="black"/>
<path d="M132.185 11.8254C130.413 13.1187 128.802 14.4629 127.197 16.8429H119.291C120.68 15.2731 123.658 12.5627 128.398 10.4238C129.673 10.8786 130.932 11.3457 132.185 11.8254Z" stroke="#132C39" stroke-opacity="0.05"/>
<path d="M120.065 7.2135C111.842 10.1719 107.262 13.3841 104.174 17.3428H114.364C115.357 15.9527 119.138 11.9445 126.243 9.15711C124.283 8.4912 120.879 7.42137 120.065 7.2135Z" fill="black"/>
<path d="M124.812 9.20783C118.716 11.8586 115.276 15.3268 114.113 16.8428H105.229C108.211 13.3671 112.585 10.4533 120.087 7.73693C120.883 7.95532 123.032 8.62535 124.812 9.20783Z" stroke="#132C39" stroke-opacity="0.05"/>
<path d="M124.288 0.983887H101.752C124.473 5.11491 135.421 10.4231 153.025 17.9305C151.521 16.7998 127.256 2.42442 124.288 0.983887Z" fill="black"/>
<path d="M147.019 14.8094C134.021 9.22286 123.803 4.94893 106.969 1.48389H124.172C125.822 2.31189 132.456 6.16555 138.951 10.0038C141.825 11.7023 144.664 13.3933 147.019 14.8094Z" stroke="#132C39" stroke-opacity="0.05"/>
<path d="M75.1523 4.37598C70.6513 4.37598 67.627 7.06965 67.627 11.0797C67.627 14.9041 70.8621 17.7879 75.1523 17.7879C79.5869 17.7879 82.6841 15.0292 82.6841 11.0797C82.6841 7.06965 79.6574 4.37598 75.1523 4.37598ZM75.1505 14.4861C73.2704 14.4861 71.7404 12.946 71.7404 11.0524C71.7404 9.17428 73.2704 7.64595 75.1505 7.64595C77.0239 7.64595 78.5489 9.17428 78.5489 11.0524C78.5489 12.946 77.0239 14.4861 75.1505 14.4861Z" fill="black"/>
<path d="M68.127 11.0797C68.127 9.20798 68.8289 7.67119 70.0343 6.59742C71.2449 5.51913 73.0002 4.87598 75.1523 4.87598C77.3066 4.87598 79.0636 5.5192 80.2752 6.59756C81.4817 7.67137 82.1841 9.20811 82.1841 11.0797C82.1841 12.9159 81.4677 14.4557 80.2486 15.5415C79.0253 16.6311 77.2667 17.2879 75.1523 17.2879C71.0826 17.2879 68.127 14.5755 68.127 11.0797ZM71.2404 11.0524C71.2404 13.2189 72.9911 14.9861 75.1505 14.9861C77.3048 14.9861 79.0489 13.2173 79.0489 11.0524C79.0489 8.89922 77.3011 7.14595 75.1505 7.14595C72.9948 7.14595 71.2404 8.89762 71.2404 11.0524Z" stroke="#132C39" stroke-opacity="0.05"/>
<path d="M59.9799 4.57954H57.2708V8.04238L59.1065 8.04829C60.5991 8.04829 61.8139 9.34555 61.8139 10.9403C61.8139 12.8998 60.2427 13.8518 59.1803 13.8782H55.823V0.983887H51.6621V17.3474H59.1518C62.4633 17.3474 66.0082 14.8311 66.0082 11.0849C66.0082 7.01258 62.9432 4.57954 59.9799 4.57954Z" fill="black"/>
<path d="M59.1803 14.3782V14.3784L59.1065 8.04829L59.1082 7.5483L59.1075 7.54829C59.1072 7.54829 59.1068 7.54829 59.1065 7.54829L57.7708 7.54399V5.07954H59.9799C62.6752 5.07954 65.5082 7.29679 65.5082 11.0849C65.5082 14.4789 62.27 16.8474 59.1518 16.8474H52.1621V1.48389H55.323V13.8782V14.3782H55.823H59.1803Z" stroke="#132C39" stroke-opacity="0.05"/>
<path d="M22.4652 10.9651C22.4652 9.34624 23.7628 8.02851 25.357 8.02851H28.6523L25.992 12.4934H29.9666L32.6418 8.28641V4.58887L24.7017 4.59796C21.2386 4.59796 18.4219 7.45766 18.4219 10.9724C18.4219 14.487 21.2386 17.3472 24.7013 17.3472H32.6667V13.9007H25.357C23.7628 13.9007 22.4652 12.5839 22.4652 10.9651Z" fill="black"/>
<path d="M29.0819 8.28444L29.5323 7.52851H28.6523H25.357C23.4794 7.52851 21.9652 9.07736 21.9652 10.9651C21.9652 12.853 23.4796 14.4007 25.357 14.4007H32.1667V16.8472H24.7013C21.5219 16.8472 18.9219 14.2181 18.9219 10.9724C18.9219 7.72671 21.5218 5.09796 24.7017 5.09796L24.7023 5.09796L32.1418 5.08944V8.1409L29.692 11.9934H26.872L29.0819 8.28444ZM32.1418 4.58944L24.7017 4.59796L32.1418 4.58944Z" stroke="#132C39" stroke-opacity="0.05"/>
<path d="M10.6222 0.983643H0.466797V17.3467H4.50063V4.55383L9.73435 4.55838C11.1699 4.56065 12.7031 5.32845 12.7031 7.47994C12.7031 9.12516 11.5498 10.3733 9.9347 10.3733L5.89997 10.371V13.7811H8.72804C11.1567 13.8798 12.2304 15.0006 12.2463 17.4141V20.9133H16.4791V16.2546C16.4791 13.7856 14.7406 12.5311 13.0672 12.1081C15.6958 11.2139 16.9897 9.15927 16.9897 6.66801C16.9897 3.15741 13.6845 0.983643 10.6222 0.983643Z" fill="black"/>
<path d="M15.9791 16.2546V20.4133H12.7463L12.7463 17.4141L12.7463 17.4108C12.7379 16.1399 12.4513 15.1065 11.7516 14.3822C11.0519 13.6577 10.0269 13.3335 8.74834 13.2815L8.73819 13.2811H8.72804H6.39997V10.8713L9.93442 10.8733H9.9347C11.8513 10.8733 13.2031 9.37526 13.2031 7.47994C13.2031 6.27298 12.7662 5.39381 12.074 4.82648C11.3982 4.27267 10.533 4.05964 9.73514 4.05838L9.73478 4.05838L4.50107 4.05383L4.00063 4.05339V4.55383V16.8467H0.966797V1.48364H10.6222C13.5104 1.48364 16.4897 3.52562 16.4897 6.66801C16.4897 8.95627 15.3218 10.813 12.9061 11.6348L11.3068 12.1789L12.9446 12.5929C14.4832 12.9818 15.9791 14.0936 15.9791 16.2546Z" stroke="#132C39" stroke-opacity="0.05"/>
<path d="M93.9236 10.5327C96.7237 9.6494 97.5228 8.10606 97.5328 5.03759V4.56544H93.4189V5.25774C93.4189 7.3137 92.5501 8.78653 90.6225 8.78653L88.665 8.78744V0.983887H84.4883V17.347H88.665V12.2453H90.1634C92.2407 12.2453 93.5098 13.4484 93.5098 15.3447V17.347H97.6612V15.482C97.6612 13.0372 96.5807 11.271 93.9236 10.5327Z" fill="black"/>
<path d="M93.7732 10.0559L92.1653 10.5631L93.7898 11.0145C95.0335 11.36 95.8605 11.9312 96.3826 12.6589C96.9073 13.3902 97.1612 14.3316 97.1612 15.482V16.847H94.0098V15.3447C94.0098 14.2808 93.6506 13.3651 92.9565 12.7181C92.2664 12.0748 91.2972 11.7453 90.1634 11.7453H88.665H88.165V12.2453V16.847H84.9883V1.48389H88.165V8.78744V9.28767L88.6653 9.28744L90.6225 9.28653C91.7308 9.28653 92.5861 8.85385 93.1468 8.08866C93.6906 7.34657 93.9189 6.34547 93.9189 5.25774V5.06544H97.0327C97.0253 6.55418 96.8237 7.58407 96.3507 8.33919C95.8848 9.08307 95.107 9.6351 93.7732 10.0559Z" stroke="#132C39" stroke-opacity="0.05"/>
<path d="M38.6883 10.9651C38.6883 9.34624 39.985 8.02851 41.5797 8.02851H44.8745L42.2151 12.4934H46.1897L48.8645 8.28641V4.58887L40.9248 4.59796C37.4613 4.59796 34.6445 7.45766 34.6445 10.9724C34.6445 14.487 37.4613 17.3472 40.9244 17.3472H48.8889V13.9007H41.5797C39.985 13.9007 38.6883 12.5839 38.6883 10.9651Z" fill="black"/>
<path d="M45.3041 8.28437L45.7543 7.52851H44.8745H41.5797C39.7015 7.52851 38.1883 9.07752 38.1883 10.9651C38.1883 12.8528 39.7017 14.4007 41.5797 14.4007H48.3889V16.8472H40.9244C37.7445 16.8472 35.1445 14.2181 35.1445 10.9724C35.1445 7.72673 37.7445 5.09796 40.9248 5.09796L40.9254 5.09796L48.3645 5.08944V8.14092L45.9151 11.9934H43.0949L45.3041 8.28437ZM48.3645 4.58944L40.9248 4.59796L48.3645 4.58944Z" stroke="#132C39" stroke-opacity="0.05"/>
</svg>

<svg width="164" height="21" viewBox="0 0 164 21" fill="none" xmlns="http://www.w3.org/2000/svg"><path d="M140.188 7.928c7.057-2.842 11.452-4.479 23.097-7.326-6.32.42-20.31 1.387-29.951 3.28l6.854 4.046z" fill="#000"/><path d="M136.959 5.44l-2.226-1.314c7.178-1.3 16.339-2.13 23.006-2.632-7.739 2.05-11.772 3.57-17.509 5.878l-3.271-1.931z" stroke="#132C39" stroke-opacity=".05"/><path d="M118.24 17.343h9.224c1.828-2.783 3.646-4.141 5.763-5.652a179.216 179.216 0 00-4.85-1.806c-5.891 2.616-9.168 6.125-10.137 7.458z" fill="#000"/><path d="M132.185 11.825c-1.772 1.294-3.383 2.638-4.988 5.018h-7.906c1.389-1.57 4.367-4.28 9.107-6.42 1.275.456 2.534.923 3.787 1.402z" stroke="#132C39" stroke-opacity=".05"/><path d="M120.065 7.213c-8.223 2.959-12.803 6.171-15.891 10.13h10.19c.993-1.39 4.774-5.399 11.879-8.186-1.96-.666-5.364-1.736-6.178-1.944z" fill="#000"/><path d="M124.812 9.208c-6.096 2.65-9.536 6.119-10.699 7.635h-8.884c2.982-3.476 7.356-6.39 14.858-9.106.796.218 2.945.888 4.725 1.47z" stroke="#132C39" stroke-opacity=".05"/><path d="M124.288.984h-22.536c22.721 4.13 33.669 9.44 51.273 16.947C151.521 16.8 127.256 2.423 124.288.983z" fill="#000"/><path d="M147.019 14.81c-12.998-5.587-23.216-9.861-40.05-13.326h17.203c1.65.828 8.284 4.682 14.779 8.52 2.874 1.698 5.713 3.39 8.068 4.805z" stroke="#132C39" stroke-opacity=".05"/><path d="M75.152 4.376c-4.5 0-7.525 2.694-7.525 6.704 0 3.824 3.235 6.708 7.525 6.708 4.435 0 7.532-2.759 7.532-6.708 0-4.01-3.027-6.704-7.532-6.704zm-.002 10.11c-1.88 0-3.41-1.54-3.41-3.434a3.412 3.412 0 013.41-3.406 3.407 3.407 0 013.399 3.406c0 1.894-1.525 3.434-3.399 3.434z" fill="#000"/><path d="M68.127 11.08c0-1.872.702-3.409 1.907-4.483C71.244 5.52 73 4.876 75.152 4.876c2.155 0 3.912.643 5.123 1.722 1.207 1.073 1.91 2.61 1.91 4.482 0 1.836-.717 3.376-1.936 4.461-1.224 1.09-2.982 1.747-5.097 1.747-4.07 0-7.025-2.713-7.025-6.208zm3.113-.028c0 2.167 1.751 3.934 3.91 3.934 2.155 0 3.899-1.769 3.899-3.934a3.907 3.907 0 00-3.899-3.906 3.912 3.912 0 00-3.91 3.906z" stroke="#132C39" stroke-opacity=".05"/><path d="M59.98 4.58h-2.71v3.462l1.836.006c1.493 0 2.708 1.298 2.708 2.892 0 1.96-1.571 2.912-2.634 2.938h-3.357V.984h-4.16v16.363h7.489c3.311 0 6.856-2.516 6.856-6.262 0-4.072-3.065-6.505-6.028-6.505z" fill="#000"/><path d="M59.18 14.378v0l-.074-6.33.002-.5h-.002l-1.335-.004V5.08h2.209c2.695 0 5.528 2.217 5.528 6.005 0 3.394-3.238 5.762-6.356 5.762h-6.99V1.484h3.161v12.894h3.857z" stroke="#132C39" stroke-opacity=".05"/><path d="M22.465 10.965c0-1.619 1.298-2.936 2.892-2.936h3.295l-2.66 4.464h3.975l2.675-4.207V4.59l-7.94.009c-3.463 0-6.28 2.86-6.28 6.374 0 3.515 2.817 6.375 6.28 6.375h7.965v-3.446h-7.31c-1.594 0-2.892-1.317-2.892-2.936z" fill="#000"/><path d="M29.082 8.284l.45-.755h-4.175c-1.878 0-3.392 1.548-3.392 3.436s1.515 3.436 3.392 3.436h6.81v2.446H24.7c-3.18 0-5.78-2.629-5.78-5.875 0-3.245 2.6-5.874 5.78-5.874h.001l7.44-.009v3.052l-2.45 3.852h-2.82l2.21-3.709zm3.06-3.695l-7.44.009 7.44-.009z" stroke="#132C39" stroke-opacity=".05"/><path d="M10.622.984H.467v16.363H4.5V4.554l5.233.004c1.436.003 2.97.77 2.97 2.922 0 1.645-1.154 2.893-2.77 2.893L5.9 10.371v3.41h2.828c2.429.099 3.502 1.22 3.518 3.633v3.5h4.233v-4.66c0-2.468-1.738-3.723-3.412-4.146 2.629-.894 3.923-2.949 3.923-5.44 0-3.51-3.305-5.684-6.368-5.684z" fill="#000"/><path d="M15.98 16.255v4.158h-3.234v-3.002c-.008-1.271-.295-2.305-.994-3.029-.7-.724-1.725-1.048-3.004-1.1H6.4v-2.41l3.534.001h0c1.917 0 3.27-1.498 3.27-3.393 0-1.207-.438-2.086-1.13-2.654-.676-.553-1.541-.766-2.339-.768h0L4.5 4.054H4v12.793H.967V1.484h9.655c2.888 0 5.868 2.042 5.868 5.184 0 2.288-1.168 4.145-3.584 4.967l-1.6.544 1.639.414c1.538.389 3.034 1.5 3.034 3.662z" stroke="#132C39" stroke-opacity=".05"/><path d="M93.924 10.533c2.8-.884 3.599-2.427 3.609-5.495v-.473h-4.114v.693c0 2.056-.869 3.529-2.796 3.529h-1.958V.984h-4.177v16.363h4.177v-5.102h1.498c2.078 0 3.347 1.203 3.347 3.1v2.002h4.151v-1.865c0-2.445-1.08-4.211-3.737-4.95z" fill="#000"/><path d="M93.773 10.056l-1.608.507 1.625.451c1.243.346 2.07.917 2.593 1.645.524.731.778 1.673.778 2.823v1.365H94.01v-1.502c0-1.064-.36-1.98-1.053-2.627-.69-.643-1.66-.973-2.794-.973h-1.998v5.102h-3.177V1.484h3.177v7.803h2.457c1.109 0 1.964-.433 2.525-1.198.544-.742.772-1.744.772-2.831v-.193h3.114c-.008 1.49-.21 2.52-.682 3.274-.466.744-1.244 1.296-2.578 1.717z" stroke="#132C39" stroke-opacity=".05"/><path d="M38.688 10.965c0-1.619 1.297-2.936 2.892-2.936h3.294l-2.659 4.464h3.975l2.675-4.207V4.59l-7.94.009c-3.464 0-6.28 2.86-6.28 6.374 0 3.515 2.816 6.375 6.28 6.375h7.964v-3.446h-7.31c-1.594 0-2.89-1.317-2.89-2.936z" fill="#000"/><path d="M45.304 8.284l.45-.755H41.58c-1.878 0-3.392 1.549-3.392 3.436 0 1.888 1.514 3.436 3.392 3.436h6.809v2.446h-7.465c-3.18 0-5.78-2.629-5.78-5.875 0-3.245 2.6-5.874 5.78-5.874h.001l7.44-.009v3.052l-2.45 3.852h-2.82l2.21-3.709zm3.06-3.695l-7.44.009 7.44-.009z" stroke="#132C39" stroke-opacity=".05"/></svg>
